src/components/Icon/utils/svgsOptimized/align-right.svg

<?xml version="1.0" encoding="utf-8"?><svg width="24" height="24" xmlns="http://www.w3.org/2000/svg" viewBox="0 0 24 24"><path d="M17 7.5c0-.28.22-.5.5-.5s.5.22.5.5v9c0 .28-.22.5-.5.5s-.5-.22-.5-.5v-9Z"/><path fill-rule="evenodd" clip-rule="evenodd" d="M7 9h8c.55 0 1 .45 1 1v4c0 .55-.45 1-1 1H7c-.55 0-1-.45-1-1v-4c0-.55.45-1 1-1Zm.1 4.9h7.8v-3.8H7.1v3.8Z"/></svg>

<svg width="24" height="24" viewBox="0 0 24 24"  xmlns="http://www.w3.org/2000/svg">
<path d="M17 7.5C17 7.22 17.22 7 17.5 7C17.78 7 18 7.22 18 7.5V16.5C18 16.78 17.78 17 17.5 17C17.22 17 17 16.78 17 16.5V7.5Z" />
<path fill-rule="evenodd" clip-rule="evenodd" d="M7 9H15C15.55 9 16 9.45 16 10V14C16 14.55 15.55 15 15 15H7C6.45 15 6 14.55 6 14V10C6 9.45 6.45 9 7 9ZM7.1 13.9H14.9V10.1H7.1V13.9Z" />
</svg>
